img/logo.svg

<svg width="325" height="325" fill="none" xmlns="http://www.w3.org/2000/svg"><circle cx="162.5" cy="162.5" r="162" stroke="#131313"/><path d="M43.9 158.7c3.813-9.24 8.507-18.187 14.08-26.84 5.72-8.8 11.807-16.427 18.26-22.88-2.787-1.32-6.16-2.933-10.12-4.84a57.877 57.877 0 0 0-11.88-4.4c-4.107-1.173-7.993-1.467-11.66-.88-3.667.44-6.6 2.42-8.8 5.94-.733.88-1.393 1.1-1.98.66-.587-.44-.587-1.1 0-1.98 2.787-4.107 6.16-6.527 10.12-7.26 3.96-.88 8.14-.807 12.54.22 4.4 1.027 8.727 2.64 12.98 4.84a3509.48 3509.48 0 0 0 11.44 5.5c1.467-1.32 3.3-2.713 5.5-4.18a62.632 62.632 0 0 1 7.48-4.4 48.016 48.016 0 0 1 8.58-3.52c3.08-1.027 6.087-1.613 9.02-1.76 5.427-.147 9.387 1.027 11.88 3.52 2.64 2.493 3.813 5.353 3.52 8.58-.147 3.08-1.76 6.013-4.84 8.8-2.933 2.64-7.187 4.107-12.76 4.4-4.4.147-8.653-.367-12.76-1.54a62.245 62.245 0 0 1-11.66-4.62c-6.16 6.307-12.027 13.713-17.6 22.22-5.427 8.36-10.047 16.94-13.86 25.74-.88 1.907-1.98 4.473-3.3 7.7a222.6 222.6 0 0 0-3.52 10.56 130.659 130.659 0 0 0-2.64 11.44c-.587 3.96-.733 7.627-.44 11 .293 3.227 1.173 6.013 2.64 8.36 1.613 2.347 4.107 3.74 7.48 4.18 2.787.44 5.793.147 9.02-.88 3.373-1.173 6.747-2.787 10.12-4.84 3.373-2.2 6.747-4.693 10.12-7.48a182.322 182.322 0 0 0 9.46-8.36c3.08-2.933 5.867-5.72 8.36-8.36 2.493-2.787 4.547-5.207 6.16-7.26.733-.88 1.393-1.027 1.98-.44.733.44.733 1.1 0 1.98-3.08 3.667-6.747 7.773-11 12.32a140.35 140.35 0 0 1-13.64 12.76c-4.84 3.96-9.9 7.333-15.18 10.12-5.133 2.787-10.267 4.253-15.4 4.4-4.987.293-8.8-.587-11.44-2.64-2.493-2.2-4.18-5.06-5.06-8.58-.88-3.52-1.173-7.48-.88-11.88.44-4.547 1.173-9.02 2.2-13.42 1.173-4.4 2.42-8.507 3.74-12.32 1.467-3.96 2.713-7.187 3.74-9.68Zm64.68-61.82c-2.053 0-4.253.513-6.6 1.54a72.1 72.1 0 0 0-6.6 3.52 85.993 85.993 0 0 0-5.94 4.18c-1.76 1.32-3.153 2.493-4.18 3.52 2.933 1.467 6.307 2.787 10.12 3.96 3.813 1.027 7.627 1.393 11.44 1.1 3.667-.44 6.307-1.613 7.92-3.52 1.76-2.053 2.64-4.107 2.64-6.16 0-2.2-.807-4.107-2.42-5.72-1.467-1.613-3.593-2.42-6.38-2.42Zm29.935 96.58c-.146-.147-.366-.513-.66-1.1-2.2 1.467-5.28 2.64-9.24 3.52-3.813.88-7.48 1.1-11 .66-3.52-.44-6.38-1.687-8.58-3.74-2.053-2.053-2.346-5.28-.88-9.68.587-2.2 1.614-4.107 3.08-5.72a34.535 34.535 0 0 1 4.84-4.4 60.413 60.413 0 0 1 5.72-3.52 210.592 210.592 0 0 0 5.94-3.52l-2.2-6.16c-.733-2.053-.806-4.107-.22-6.16.734-2.64 2.347-4.62 4.84-5.94 2.494-1.32 4.987-1.98 7.48-1.98 2.64-.147 4.767.44 6.38 1.76 1.76 1.173 2.274 3.08 1.54 5.72-.733 2.933-2.273 5.353-4.62 7.26a100.553 100.553 0 0 1-7.04 4.84l.88 2.64c2.347-.44 4.4-.22 6.16.66 1.907.733 3.227 1.98 3.96 3.74 1.027 2.053 1.174 4.473.44 7.26-.586 2.787-1.686 5.427-3.3 7.92l2.2 4.4c1.174 1.613 2.787 2.2 4.84 1.76 2.2-.44 3.52-1.76 3.96-3.96.294-1.173.807-1.76 1.54-1.76.88-.147 1.174.513.88 1.98-.44 1.907-1.393 3.447-2.86 4.62-1.466 1.173-3.08 1.98-4.84 2.42-1.76.293-3.52.22-5.28-.22-1.76-.587-3.08-1.687-3.96-3.3Zm-1.76-3.08c-1.173-2.493-2.346-5.28-3.52-8.36a374.074 374.074 0 0 1-3.3-9.46c-1.613 1.173-3.006 2.64-4.18 4.4-1.173 1.613-1.76 3.227-1.76 4.84 0 .733-.366 1.247-1.1 1.54-.88.293-1.32.073-1.32-.66 0-2.2.734-4.4 2.2-6.6 1.614-2.2 3.447-4.107 5.5-5.72-.146-.293-.366-.88-.66-1.76a110.765 110.765 0 0 0-8.8 6.38c-2.786 2.2-4.693 4.913-5.72 8.14-1.026 3.227-.733 5.72.88 7.48 1.76 1.76 3.96 2.86 6.6 3.3 2.787.44 5.647.367 8.58-.22 2.934-.733 5.134-1.833 6.6-3.3Zm-1.1-20.24c.734 2.493 1.54 5.06 2.42 7.7a369.494 369.494 0 0 0 3.08 7.26c1.027-1.907 1.687-3.887 1.98-5.94.294-2.053.074-3.887-.66-5.5-1.173-2.64-3.446-3.813-6.82-3.52Zm-2.86-7.04c2.2-1.173 3.96-2.567 5.28-4.18 1.467-1.76 2.42-3.447 2.86-5.06.587-2.2.44-3.74-.44-4.62-.88-.88-1.98-1.247-3.3-1.1-1.173 0-2.42.587-3.74 1.76-1.173 1.027-1.906 2.493-2.2 4.4-.146.733-.146 1.687 0 2.86.294 1.173.807 3.153 1.54 5.94Zm155.484-68.86c-.294 1.173-.88 2.933-1.76 5.28-.734 2.2-1.687 4.913-2.86 8.14a4826.167 4826.167 0 0 1-7.48 22.22c-2.934 8.653-5.647 17.747-8.14 27.28 2.346.147 4.473-.073 6.38-.66 1.906-.733 3.446-2.127 4.62-4.18.293-.733.806-1.027 1.54-.88.733.147.806.807.22 1.98-1.32 2.493-3.374 4.327-6.16 5.5-2.64 1.173-5.134 1.613-7.48 1.32a375.236 375.236 0 0 0-4.18 20.9c-1.027 6.747-1.394 13.127-1.1 19.14.146 4.4.66 8.507 1.54 12.32 1.026 3.667 2.493 6.82 4.4 9.46 2.053 2.787 4.62 4.913 7.7 6.38 3.226 1.467 7.113 2.127 11.66 1.98.88 0 1.466.513 1.76 1.54 0 1.027-.587 1.54-1.76 1.54-11.734.293-20.02-2.42-24.86-8.14-4.84-5.573-7.407-14.08-7.7-25.52-.147-6.16.293-12.687 1.32-19.58 1.026-7.04 2.42-14.08 4.18-21.12a113.2 113.2 0 0 0-6.6-1.98 94.421 94.421 0 0 0-6.16-1.54c-4.84 8.067-9.607 15.84-14.3 23.32-4.547 7.48-8.727 14.007-12.54 19.58-3.814 5.133-8.58 9.607-14.3 13.42-5.574 3.667-11.514 5.353-17.82 5.06-4.254-.147-7.994-1.1-11.22-2.86-3.227-1.76-5.94-3.96-8.14-6.6-2.2-2.64-3.814-5.647-4.84-9.02-1.027-3.52-1.54-7.04-1.54-10.56.146-6.453 1.833-12.1 5.06-16.94 3.373-4.84 7.48-8.433 12.32-10.78 4.84-2.493 10.12-3.52 15.84-3.08 5.72.44 11.073 2.713 16.06 6.82.88.733 1.1 1.393.66 1.98-.44.587-1.027.513-1.76-.22-4.254-3.52-8.727-5.353-13.42-5.5-4.547-.147-8.8.953-12.76 3.3-3.814 2.2-7.04 5.5-9.68 9.9-2.64 4.253-4.034 9.02-4.18 14.3-.147 3.227.146 6.38.88 9.46.733 3.08 1.833 5.867 3.3 8.36 1.613 2.347 3.52 4.253 5.72 5.72 2.346 1.467 4.986 2.273 7.92 2.42 4.253.293 8.58-1.32 12.98-4.84 4.4-3.52 8.286-7.627 11.66-12.32 3.813-5.427 7.993-11.807 12.54-19.14 4.693-7.48 9.46-15.253 14.3-23.32a40.674 40.674 0 0 0-9.46.22c-2.934.293-5.427 1.76-7.48 4.4-.734.733-1.394.88-1.98.44-.587-.44-.514-1.027.22-1.76 2.346-3.08 5.353-5.06 9.02-5.94 3.666-.88 7.48-.953 11.44-.22l9.68-16.28a731.266 731.266 0 0 1 9.68-15.18c3.08-4.84 5.94-9.24 8.58-13.2 2.786-3.96 5.206-7.187 7.26-9.68a879.24 879.24 0 0 0-7.7 2.42c-3.227 1.027-6.674 2.273-10.34 3.74a96.149 96.149 0 0 0-10.34 5.06c-3.227 1.907-5.94 4.033-8.14 6.38-2.054 2.347-3.3 4.913-3.74 7.7-.294 2.64.806 5.427 3.3 8.36.733.733.806 1.393.22 1.98-.44.44-1.027.367-1.76-.22-4.254-3.96-6.307-7.627-6.16-11 .293-3.373 1.906-6.453 4.84-9.24 2.933-2.933 6.746-5.5 11.44-7.7 4.84-2.2 9.68-4.107 14.52-5.72 4.986-1.76 9.606-3.153 13.86-4.18 4.253-1.027 7.333-1.76 9.24-2.2.586-.147 1.1 0 1.54.44.44.293.586.807.44 1.54Zm-27.5 61.6c1.026-4.107 2.346-8.507 3.96-13.2 1.613-4.84 3.226-9.607 4.84-14.3a666.776 666.776 0 0 1 4.62-13.42c1.613-4.253 2.933-7.847 3.96-10.78-1.76 2.787-3.887 6.16-6.38 10.12-2.347 3.96-4.84 8.213-7.48 12.76-2.64 4.4-5.28 8.873-7.92 13.42-2.64 4.547-5.06 8.653-7.26 12.32 2.053.587 4.033 1.173 5.94 1.76a40.118 40.118 0 0 0 5.72 1.32Z" fill="#131313"/></svg>

<svg width="325" height="325" viewBox="0 0 325 325" fill="none" xmlns="http://www.w3.org/2000/svg">
<circle cx="162.5" cy="162.5" r="162" stroke="#131313"/>
<path d="M43.9 158.7C47.7133 149.46 52.4067 140.513 57.98 131.86C63.7 123.06 69.7867 115.433 76.24 108.98C73.4533 107.66 70.08 106.047 66.12 104.14C62.3067 102.233 58.3467 100.767 54.24 99.74C50.1333 98.5667 46.2467 98.2733 42.58 98.86C38.9133 99.3 35.98 101.28 33.78 104.8C33.0467 105.68 32.3867 105.9 31.8 105.46C31.2133 105.02 31.2133 104.36 31.8 103.48C34.5867 99.3733 37.96 96.9533 41.92 96.22C45.88 95.34 50.06 95.4133 54.46 96.44C58.86 97.4667 63.1867 99.08 67.44 101.28C71.6933 103.333 75.5067 105.167 78.88 106.78C80.3467 105.46 82.18 104.067 84.38 102.6C86.7267 100.987 89.22 99.52 91.86 98.2C94.6467 96.7333 97.5067 95.56 100.44 94.68C103.52 93.6533 106.527 93.0667 109.46 92.92C114.887 92.7733 118.847 93.9467 121.34 96.44C123.98 98.9333 125.153 101.793 124.86 105.02C124.713 108.1 123.1 111.033 120.02 113.82C117.087 116.46 112.833 117.927 107.26 118.22C102.86 118.367 98.6067 117.853 94.5 116.68C90.3933 115.507 86.5067 113.967 82.84 112.06C76.68 118.367 70.8133 125.773 65.24 134.28C59.8133 142.64 55.1933 151.22 51.38 160.02C50.5 161.927 49.4 164.493 48.08 167.72C46.9067 170.947 45.7333 174.467 44.56 178.28C43.5333 181.947 42.6533 185.76 41.92 189.72C41.3333 193.68 41.1867 197.347 41.48 200.72C41.7733 203.947 42.6533 206.733 44.12 209.08C45.7333 211.427 48.2267 212.82 51.6 213.26C54.3867 213.7 57.3933 213.407 60.62 212.38C63.9933 211.207 67.3667 209.593 70.74 207.54C74.1133 205.34 77.4867 202.847 80.86 200.06C84.2333 197.273 87.3867 194.487 90.32 191.7C93.4 188.767 96.1867 185.98 98.68 183.34C101.173 180.553 103.227 178.133 104.84 176.08C105.573 175.2 106.233 175.053 106.82 175.64C107.553 176.08 107.553 176.74 106.82 177.62C103.74 181.287 100.073 185.393 95.82 189.94C91.5667 194.487 87.02 198.74 82.18 202.7C77.34 206.66 72.28 210.033 67 212.82C61.8667 215.607 56.7333 217.073 51.6 217.22C46.6133 217.513 42.8 216.633 40.16 214.58C37.6667 212.38 35.98 209.52 35.1 206C34.22 202.48 33.9267 198.52 34.22 194.12C34.66 189.573 35.3933 185.1 36.42 180.7C37.5933 176.3 38.84 172.193 40.16 168.38C41.6267 164.42 42.8733 161.193 43.9 158.7ZM108.58 96.88C106.527 96.88 104.327 97.3933 101.98 98.42C99.78 99.4467 97.58 100.62 95.38 101.94C93.3267 103.26 91.3467 104.653 89.44 106.12C87.68 107.44 86.2867 108.613 85.26 109.64C88.1933 111.107 91.5667 112.427 95.38 113.6C99.1933 114.627 103.007 114.993 106.82 114.7C110.487 114.26 113.127 113.087 114.74 111.18C116.5 109.127 117.38 107.073 117.38 105.02C117.38 102.82 116.573 100.913 114.96 99.3C113.493 97.6867 111.367 96.88 108.58 96.88ZM138.515 193.46C138.369 193.313 138.149 192.947 137.855 192.36C135.655 193.827 132.575 195 128.615 195.88C124.802 196.76 121.135 196.98 117.615 196.54C114.095 196.1 111.235 194.853 109.035 192.8C106.982 190.747 106.689 187.52 108.155 183.12C108.742 180.92 109.769 179.013 111.235 177.4C112.702 175.787 114.315 174.32 116.075 173C117.982 171.68 119.889 170.507 121.795 169.48C123.849 168.307 125.829 167.133 127.735 165.96C127.002 163.907 126.269 161.853 125.535 159.8C124.802 157.747 124.729 155.693 125.315 153.64C126.049 151 127.662 149.02 130.155 147.7C132.649 146.38 135.142 145.72 137.635 145.72C140.275 145.573 142.402 146.16 144.015 147.48C145.775 148.653 146.289 150.56 145.555 153.2C144.822 156.133 143.282 158.553 140.935 160.46C138.589 162.22 136.242 163.833 133.895 165.3L134.775 167.94C137.122 167.5 139.175 167.72 140.935 168.6C142.842 169.333 144.162 170.58 144.895 172.34C145.922 174.393 146.069 176.813 145.335 179.6C144.749 182.387 143.649 185.027 142.035 187.52L144.235 191.92C145.409 193.533 147.022 194.12 149.075 193.68C151.275 193.24 152.595 191.92 153.035 189.72C153.329 188.547 153.842 187.96 154.575 187.96C155.455 187.813 155.749 188.473 155.455 189.94C155.015 191.847 154.062 193.387 152.595 194.56C151.129 195.733 149.515 196.54 147.755 196.98C145.995 197.273 144.235 197.2 142.475 196.76C140.715 196.173 139.395 195.073 138.515 193.46ZM136.755 190.38C135.582 187.887 134.409 185.1 133.235 182.02C132.062 178.793 130.962 175.64 129.935 172.56C128.322 173.733 126.929 175.2 125.755 176.96C124.582 178.573 123.995 180.187 123.995 181.8C123.995 182.533 123.629 183.047 122.895 183.34C122.015 183.633 121.575 183.413 121.575 182.68C121.575 180.48 122.309 178.28 123.775 176.08C125.389 173.88 127.222 171.973 129.275 170.36C129.129 170.067 128.909 169.48 128.615 168.6C125.682 170.507 122.749 172.633 119.815 174.98C117.029 177.18 115.122 179.893 114.095 183.12C113.069 186.347 113.362 188.84 114.975 190.6C116.735 192.36 118.935 193.46 121.575 193.9C124.362 194.34 127.222 194.267 130.155 193.68C133.089 192.947 135.289 191.847 136.755 190.38ZM135.655 170.14C136.389 172.633 137.195 175.2 138.075 177.84C139.102 180.333 140.129 182.753 141.155 185.1C142.182 183.193 142.842 181.213 143.135 179.16C143.429 177.107 143.209 175.273 142.475 173.66C141.302 171.02 139.029 169.847 135.655 170.14ZM132.795 163.1C134.995 161.927 136.755 160.533 138.075 158.92C139.542 157.16 140.495 155.473 140.935 153.86C141.522 151.66 141.375 150.12 140.495 149.24C139.615 148.36 138.515 147.993 137.195 148.14C136.022 148.14 134.775 148.727 133.455 149.9C132.282 150.927 131.549 152.393 131.255 154.3C131.109 155.033 131.109 155.987 131.255 157.16C131.549 158.333 132.062 160.313 132.795 163.1ZM288.279 94.24C287.985 95.4133 287.399 97.1733 286.519 99.52C285.785 101.72 284.832 104.433 283.659 107.66C281.605 113.82 279.112 121.227 276.179 129.88C273.245 138.533 270.532 147.627 268.039 157.16C270.385 157.307 272.512 157.087 274.419 156.5C276.325 155.767 277.865 154.373 279.039 152.32C279.332 151.587 279.845 151.293 280.579 151.44C281.312 151.587 281.385 152.247 280.799 153.42C279.479 155.913 277.425 157.747 274.639 158.92C271.999 160.093 269.505 160.533 267.159 160.24C265.545 167.28 264.152 174.247 262.979 181.14C261.952 187.887 261.585 194.267 261.879 200.28C262.025 204.68 262.539 208.787 263.419 212.6C264.445 216.267 265.912 219.42 267.819 222.06C269.872 224.847 272.439 226.973 275.519 228.44C278.745 229.907 282.632 230.567 287.179 230.42C288.059 230.42 288.645 230.933 288.939 231.96C288.939 232.987 288.352 233.5 287.179 233.5C275.445 233.793 267.159 231.08 262.319 225.36C257.479 219.787 254.912 211.28 254.619 199.84C254.472 193.68 254.912 187.153 255.939 180.26C256.965 173.22 258.359 166.18 260.119 159.14C257.919 158.407 255.719 157.747 253.519 157.16C251.465 156.573 249.412 156.06 247.359 155.62C242.519 163.687 237.752 171.46 233.059 178.94C228.512 186.42 224.332 192.947 220.519 198.52C216.705 203.653 211.939 208.127 206.219 211.94C200.645 215.607 194.705 217.293 188.399 217C184.145 216.853 180.405 215.9 177.179 214.14C173.952 212.38 171.239 210.18 169.039 207.54C166.839 204.9 165.225 201.893 164.199 198.52C163.172 195 162.659 191.48 162.659 187.96C162.805 181.507 164.492 175.86 167.719 171.02C171.092 166.18 175.199 162.587 180.039 160.24C184.879 157.747 190.159 156.72 195.879 157.16C201.599 157.6 206.952 159.873 211.939 163.98C212.819 164.713 213.039 165.373 212.599 165.96C212.159 166.547 211.572 166.473 210.839 165.74C206.585 162.22 202.112 160.387 197.419 160.24C192.872 160.093 188.619 161.193 184.659 163.54C180.845 165.74 177.619 169.04 174.979 173.44C172.339 177.693 170.945 182.46 170.799 187.74C170.652 190.967 170.945 194.12 171.679 197.2C172.412 200.28 173.512 203.067 174.979 205.56C176.592 207.907 178.499 209.813 180.699 211.28C183.045 212.747 185.685 213.553 188.619 213.7C192.872 213.993 197.199 212.38 201.599 208.86C205.999 205.34 209.885 201.233 213.259 196.54C217.072 191.113 221.252 184.733 225.799 177.4C230.492 169.92 235.259 162.147 240.099 154.08C236.872 153.787 233.719 153.86 230.639 154.3C227.705 154.593 225.212 156.06 223.159 158.7C222.425 159.433 221.765 159.58 221.179 159.14C220.592 158.7 220.665 158.113 221.399 157.38C223.745 154.3 226.752 152.32 230.419 151.44C234.085 150.56 237.899 150.487 241.859 151.22C245.085 145.793 248.312 140.367 251.539 134.94C254.912 129.513 258.139 124.453 261.219 119.76C264.299 114.92 267.159 110.52 269.799 106.56C272.585 102.6 275.005 99.3733 277.059 96.88C275.152 97.4667 272.585 98.2733 269.359 99.3C266.132 100.327 262.685 101.573 259.019 103.04C255.499 104.507 252.052 106.193 248.679 108.1C245.452 110.007 242.739 112.133 240.539 114.48C238.485 116.827 237.239 119.393 236.799 122.18C236.505 124.82 237.605 127.607 240.099 130.54C240.832 131.273 240.905 131.933 240.319 132.52C239.879 132.96 239.292 132.887 238.559 132.3C234.305 128.34 232.252 124.673 232.399 121.3C232.692 117.927 234.305 114.847 237.239 112.06C240.172 109.127 243.985 106.56 248.679 104.36C253.519 102.16 258.359 100.253 263.199 98.64C268.185 96.88 272.805 95.4867 277.059 94.46C281.312 93.4333 284.392 92.7 286.299 92.26C286.885 92.1133 287.399 92.26 287.839 92.7C288.279 92.9933 288.425 93.5067 288.279 94.24ZM260.779 155.84C261.805 151.733 263.125 147.333 264.739 142.64C266.352 137.8 267.965 133.033 269.579 128.34C271.192 123.5 272.732 119.027 274.199 114.92C275.812 110.667 277.132 107.073 278.159 104.14C276.399 106.927 274.272 110.3 271.779 114.26C269.432 118.22 266.939 122.473 264.299 127.02C261.659 131.42 259.019 135.893 256.379 140.44C253.739 144.987 251.319 149.093 249.119 152.76C251.172 153.347 253.152 153.933 255.059 154.52C256.965 155.107 258.872 155.547 260.779 155.84Z" fill="#131313"/>
</svg>
